src/icons/svg/lock.svg

<?xml version="1.0" encoding="UTF-8"?>
<svg width="40px" height="40px" viewBox="0 0 40 40" version="1.1" xmlns="http://www.w3.org/2000/svg"
>
    <path d="M9,12 L9,11 C9,4.92 13.926,0 20,0 C26.074,0 31,4.92 31,11 L31,12 L38,12 C39.104,12 40,12.9 40,14 L40,38 C40,39.1 39.104,40 38,40 L2,40 C0.894,40 0,39.1 0,38 L0,14 C0,12.9 0.894,12 2,12 L9,12 Z M26.9999997,10.9999997 C26.9999997,7.13 23.866,3.99999971 19.9999997,3.99999971 C18.1433219,3.99946929 16.3625362,4.73679675 15.0496665,6.04966646 C13.7367967,7.36253617 12.9994693,9.14332193 12.9999997,10.9999997 L12.9999997,11.9999997 L26.9999997,11.9999997 L26.9999997,10.9999997 Z M4,16 L4,36 L36,36 L36,16 L4,16 Z M20,32 C16.7466224,31.9159912 14.1529322,29.254462 14.1529322,26 C14.1529322,22.745538 16.7466224,20.0840088 20,20 C23.2533776,20.0840088 25.8470678,22.745538 25.8470678,26 C25.8470678,29.254462 23.2533776,31.9159912 20,32 L20,32 Z M20,28 C21.106,28 22,27.1 22,26 C22,24.9 21.106,24 20,24 C18.894,24 18,24.9 18,26 C18,27.1 18.894,28 20,28 Z"
          id="形状" fill="#646A73"></path>
    <path d="M9,12 L9,11 C9,4.92 13.926,0 20,0 C26.074,0 31,4.92 31,11 L31,12 L38,12 C39.104,12 40,12.9 40,14 L40,38 C40,39.1 39.104,40 38,40 L2,40 C0.894,40 0,39.1 0,38 L0,14 C0,12.9 0.894,12 2,12 L9,12 Z M26.9999997,10.9999997 C26.9999997,7.13 23.866,3.99999971 19.9999997,3.99999971 C18.1433219,3.99946929 16.3625362,4.73679675 15.0496665,6.04966646 C13.7367967,7.36253617 12.9994693,9.14332193 12.9999997,10.9999997 L12.9999997,11.9999997 L26.9999997,11.9999997 L26.9999997,10.9999997 Z M4,16 L4,36 L36,36 L36,16 L4,16 Z M20,32 C16.7466224,31.9159912 14.1529322,29.254462 14.1529322,26 C14.1529322,22.745538 16.7466224,20.0840088 20,20 C23.2533776,20.0840088 25.8470678,22.745538 25.8470678,26 C25.8470678,29.254462 23.2533776,31.9159912 20,32 L20,32 Z M20,28 C21.106,28 22,27.1 22,26 C22,24.9 21.106,24 20,24 C18.894,24 18,24.9 18,26 C18,27.1 18.894,28 20,28 Z"
          id="形状" fill-opacity="0.2" fill="#000000"></path>
</svg>

<svg width="40" height="40" xmlns="http://www.w3.org/2000/svg"><path d="M9 12v-1C9 4.92 13.926 0 20 0s11 4.92 11 11v1h7c1.104 0 2 .9 2 2v24c0 1.1-.896 2-2 2H2c-1.106 0-2-.9-2-2V14c0-1.1.894-2 2-2h7zm18-1c0-3.87-3.134-7-7-7a6.998 6.998 0 0 0-7 7v1h14v-1zM4 16v20h32V16H4zm16 16a6.002 6.002 0 0 1 0-12 6.002 6.002 0 0 1 0 12zm0-4c1.106 0 2-.9 2-2s-.894-2-2-2c-1.106 0-2 .9-2 2s.894 2 2 2z" fill="currentColor"/><path d="M9 12v-1C9 4.92 13.926 0 20 0s11 4.92 11 11v1h7c1.104 0 2 .9 2 2v24c0 1.1-.896 2-2 2H2c-1.106 0-2-.9-2-2V14c0-1.1.894-2 2-2h7zm18-1c0-3.87-3.134-7-7-7a6.998 6.998 0 0 0-7 7v1h14v-1zM4 16v20h32V16H4zm16 16a6.002 6.002 0 0 1 0-12 6.002 6.002 0 0 1 0 12zm0-4c1.106 0 2-.9 2-2s-.894-2-2-2c-1.106 0-2 .9-2 2s.894 2 2 2z" fill-opacity=".2" fill="currentColor"/></svg>
